X:1
T:Faith (Smart), 10.10.10.10.10.12
T:Faith (Smart), 10.10.10.10.10.12
T:Henry Thomas Smart, 1875
T:Public Domain Courtesy of the Cyber Hymnal™
C:Henry Thomas Smart, 1875
Z:Public Domain
Z:Courtesy of the Cyber Hymnal™
%%score ( 1 2 ) ( 3 4 )
L:1/8
Q:1/4=115
M:4/4
K:Eb
V:1 treble 
V:2 treble 
V:3 bass 
V:4 bass 
V:1
 [EB]4 [Ec]2 [Ec]2 | [EB]4 [Ee]4 | [Ed]2 [Ec]2 [EB]2 [DA]2 | [EG]8 | [EG]4 [DF]2 E2 | %5
 [EB]2 [FA]2 [EG]2 [FB]2 | ([Ge]2 [Fd]2) [Ec]4 x2 | [DB]8 | [CE]4 E2 E2 | [EF]4 [_DG]4 | %10
 [_DA]2 [F_d]2 [Ec]2 [EB]2 | [Ec]8 | [Ac]4 [Ad]2 [Ae]2 | [FB]2 [DG]2 [EA]2 [CF]2 | [B,E]4 [DF]4 | %15
 ([EG]4 [EG]2) [EG]2 | [DB]4 [EG]4 | [DB]4 [B,G]4 | [FB]2 [DB]2 [Gc]2 (de) | [Fd]4 [Ee]4 | %20
 [EB]2 [Gc]2 [FA]2 [FB]2 | [EG]2 [DB]2 E2 [FA]2 | [EG]4 [DF]4 | [B,E]8 |] %24
V:2
 x8 | x8 | x8 | x8 | x6 E2 | x8 | x10 | x8 | x4 E2 E2 | x8 | x8 | x8 | x8 | x8 | x8 | x8 | x8 | %17
 x8 | x6 F2 | x8 | x8 | x4 E2 x2 | x8 | x8 |] %24
V:3
 [E,G,]4 [A,,A,]2 [A,,A,]2 | [E,G,]4 (G,2 A,2) | [G,,B,]2 [A,,A,]2 [B,,F,]2 [B,,B,]2 | [E,B,]8 | %4
 [E,B,]4 [B,,A,]2 [C,G,]2 | [D,F,]2 [D,B,]2 [E,B,]2 [D,B,]2 | (G,=A, B,4) z2 A,2 | [B,,B,]8 | %8
 [C,G,]4 [C,G,]2 [C,G,]2 | [B,,B,]4 [E,B,]4 | [F,A,]2 [F,A,]2 [G,E]2 [G,_D]2 | C8 | %12
 (F2 E2) [F,D]2 [E,C]2 | [D,F,]2 [B,,B,]2 [C,E,]2 [A,,A,]2 | [B,,G,]4 [B,,B,]4 | %15
 ([E,B,]4 [D,B,]2) [C,E,]2 | [B,,F,]4 [C,E,]4 | [B,,F,]4 [E,G,]4 | %18
 [D,F,]2 [G,B,]2 [E,B,]2 [F,=A,]2 | [B,,B,]4 (G,2 A,2) | [G,B,]2 [E,E]2 [F,C]2 [B,,D]2 | %21
 [E,B,]2 [G,,B,]2 [C,G,]2 [A,,C]2 | [B,,B,]4 [B,,A,]4 | [E,G,]8 |] %24
V:4
 x8 | x4 C,4 | x8 | x8 | x8 | x8 | C,2 (D,E,) F,4 x2 | x8 | x8 | x8 | x8 | (A,4 G,4) | F,4 x4 | %13
 x8 | x8 | x8 | x8 | x8 | x8 | x4 C,4 | x8 | x8 | x8 | x8 |] %24

